packages/icon-lib/lib/svg/share.svg

<?xml version="1.0" encoding="UTF-8"?><svg id="Icons_Power_Gray" xmlns="http://www.w3.org/2000/svg" viewBox="0 0 16 16"><defs><style>.cls-1{fill:#08191f;}</style></defs><path class="cls-1" d="M11,10c-.51,0-.97.2-1.33.51l-2.79-1.86c.07-.21.12-.42.12-.65s-.05-.45-.12-.65l2.79-1.86c.35.32.82.51,1.33.51,1.1,0,2-.9,2-2s-.9-2-2-2-2,.9-2,2c0,.23.05.45.12.65l-2.79,1.86c-.35-.32-.82-.51-1.33-.51-1.1,0-2,.9-2,2s.9,2,2,2c.51,0,.97-.2,1.33-.51l2.79,1.86c-.07.21-.12.42-.12.65,0,1.1.9,2,2,2s2-.9,2-2-.9-2-2-2ZM11,3c.55,0,1,.45,1,1s-.45,1-1,1-1-.45-1-1,.45-1,1-1ZM5,9c-.55,0-1-.45-1-1s.45-1,1-1,1,.45,1,1-.45,1-1,1ZM11,13c-.55,0-1-.45-1-1s.45-1,1-1,1,.45,1,1-.45,1-1,1Z"/></svg>

<?xml version="1.0" encoding="utf-8"?>
<!-- Generator: Adobe Illustrator 28.1.0, SVG Export Plug-In . SVG Version: 6.00 Build 0)  -->
<svg version="1.1" id="power_grey" xmlns="http://www.w3.org/2000/svg" xmlns:xlink="http://www.w3.org/1999/xlink" x="0px" y="0px"
	 viewBox="0 0 16 16" style="enable-background:new 0 0 16 16;" xml:space="preserve">
<style type="text/css">
	.st0{fill:#08191F;}
	.st1{clip-path:url(#SVGID_00000019656596172884856980000010414629225704102310_);}
	.st2{fill-rule:evenodd;clip-rule:evenodd;fill:#08191F;}
</style>
<g>
	<path class="st0" d="M5,7c0.6,0,1,0.4,1,1S5.6,9,5,9C4.4,9,4,8.6,4,8S4.4,7,5,7 M5,6C3.9,6,3,6.9,3,8s0.9,2,2,2s2-0.9,2-2
		S6.1,6,5,6L5,6z"/>
	<path class="st0" d="M11,11c0.6,0,1,0.4,1,1s-0.4,1-1,1s-1-0.4-1-1S10.4,11,11,11 M11,10c-1.1,0-2,0.9-2,2s0.9,2,2,2s2-0.9,2-2
		S12.1,10,11,10L11,10z"/>
	<path class="st0" d="M11,3c0.6,0,1,0.4,1,1s-0.4,1-1,1s-1-0.4-1-1S10.4,3,11,3 M11,2C9.9,2,9,2.9,9,4s0.9,2,2,2s2-0.9,2-2
		S12.1,2,11,2L11,2z"/>
	<g>
		<rect x="5.8" y="5.5" transform="matrix(0.8321 -0.5547 0.5547 0.8321 -2.013 5.422)" class="st0" width="4.3" height="1"/>
	</g>
	<g>
		<rect x="7.5" y="7.9" transform="matrix(0.5546 -0.8321 0.8321 0.5546 -4.7576 11.1042)" class="st0" width="1" height="4.1"/>
	</g>
</g>
</svg>
